icon-themes/sifr_svg/cmd/sc_legend.svg

<svg viewBox="0 0 16 16" xmlns="http://www.w3.org/2000/svg"><path d="m2 0v12h-2v2h2v2h2v-2h12v-2h-12v-12zm5 1v6h8v-6zm2 2h4v2h-4z" fill="#555753"/></svg>

<svg xmlns="http://www.w3.org/2000/svg" viewBox="0 0 16 16">
  <path
     style="fill:#555753"
     d="M 2 0 L 2 12 L 0 12 L 0 14 L 2 14 L 2 16 L 4 16 L 4 14 L 16 14 L 16 12 L 4 12 L 4 0 L 2 0 z M 7 1 L 7 7 L 15 7 L 15 1 L 7 1 z M 9 3 L 13 3 L 13 5 L 9 5 L 9 3 z "
     />
</svg>
